svg/business/ad_circle_off_line.svg

<svg xmlns="http://www.w3.org/2000/svg" width="24" height="24" viewBox="0 0 24 24"><g fill="none"><path d="M24,0 L24,24 L0,24 L0,0 L24,0 Z M12.5935,23.2578 L12.5819,23.2595 L12.5109,23.295 L12.4919,23.2987 L12.4767,23.295 L12.4057,23.2595 C12.3958,23.2564 12.387,23.259 12.3821,23.2649 L12.378,23.2758 L12.3609,23.7031 L12.3659,23.7235 L12.3769,23.7357 L12.4805,23.8097 L12.4953,23.8136 L12.5071,23.8097 L12.6107,23.7357 L12.6233,23.7197 L12.6267,23.7031 L12.6096,23.2758 C12.6076,23.2657 12.601,23.2593 12.5935,23.2578 Z M12.8584,23.1453 L12.8445,23.1473 L12.6598,23.2397 L12.6499,23.2499 L12.6472,23.2611 L12.6651,23.6906 L12.6699,23.7034 L12.6784,23.7105 L12.8793,23.8032 C12.8914,23.8069 12.9022,23.803 12.9078,23.7952 L12.9118,23.7812 L12.8777,23.1665 C12.8753,23.1546 12.8674,23.147 12.8584,23.1453 Z M12.143,23.1473 C12.1332,23.1424 12.1222,23.1453 12.1156,23.1526 L12.1099,23.1665 L12.0758,23.7812 C12.0751,23.7927 12.0828,23.8019 12.0926,23.8046 L12.1083,23.8032 L12.3092,23.7105 L12.3186,23.7024 L12.3225,23.6906 L12.3404,23.2611 L12.3372,23.2485 L12.3278,23.2397 L12.143,23.1473 Z"/><path fill="#09244B" d="M12,2 C17.5228475,2 22,6.4771525 22,12 C22,14.4013589 21.1535722,16.605024 19.7427889,18.3289229 L20.7071,19.2929 C21.0976,19.6834 21.0976,20.3166 20.7071,20.7071 C20.3466385,21.0675615 19.7793793,21.0952893 19.3871027,20.7902834 L19.2929,20.7071 L18.3279248,19.7436056 C16.6041735,21.1538988 14.4008955,22 12,22 C6.4771525,22 2,17.5228475 2,12 C2,9.59910447 2.8461012,7.39582647 4.25639439,5.6720752 L3.29289,4.70711 C2.90237,4.31658 2.90237,3.68342 3.29289,3.29289 C3.65337923,2.93241 4.22060645,2.90468077 4.61290152,3.20970231 L4.70711,3.29289 L5.6720752,4.25639439 C7.39582647,2.8461012 9.59910447,2 12,2 Z M5.67927125,7.09547725 C4.62673571,8.44997896 4,10.1517985 4,12 C4,16.418278 7.581722,20 12,20 C13.8482015,20 15.550021,19.3732643 16.9045228,18.3207287 L5.67927125,7.09547725 Z M12,4 C10.1513405,4 8.44913544,4.62704639 7.09447025,5.68005389 L9.42473,8.01051 C10.2025456,8.09043188 10.8657782,8.61926391 11.115218,9.36331865 L11.1595,9.51493 L11.2363,9.82207 L13,11.5858 L13,9 C13,8.48716857 13.386027,8.06449347 13.8833761,8.0067278 L14,8 L16,8 C17.5976286,8 18.9036571,9.24892392 18.9949071,10.8237276 L19,11 L19,13 C19,14.1708278 18.3292346,15.1850247 17.3510399,15.6792545 L17.1753,15.761 L18.3199461,16.9055298 C19.3729536,15.5508646 20,13.8486595 20,12 C20,7.581722 16.418278,4 12,4 Z M6.52568,10.7741 L9.75153,14 L7.78077,14 L7.47013,15.2425 C7.33619,15.7783 6.79325,16.1041 6.25746,15.9701 C5.72166,15.8362 5.3959,15.2933 5.52985,14.7575 L6.52568,10.7741 Z M10.3751,14.6236 L11.7257,15.9742 C11.1954,16.0973 10.6624,15.7727 10.5299,15.2425 L10.3751,14.6236 Z M16,10 L15,10 L15,13.5858 L15.4142,14 L16,14 C16.5523,14 17,13.5523 17,13 L17,11 C17,10.4477 16.5523,10 16,10 Z"/></g></svg>

<svg xmlns="http://www.w3.org/2000/svg" width="24" height="24"><g fill="none"><path d="M24 0v24H0V0zM12.594 23.258l-.012.002-.071.035-.02.004-.014-.004-.071-.036c-.01-.003-.019 0-.024.006l-.004.01-.017.428.005.02.01.013.104.074.015.004.012-.004.104-.074.012-.016.004-.017-.017-.427c-.002-.01-.009-.017-.016-.018m.264-.113-.014.002-.184.093-.01.01-.003.011.018.43.005.012.008.008.201.092c.012.004.023 0 .029-.008l.004-.014-.034-.614c-.003-.012-.01-.02-.02-.022m-.715.002a.023.023 0 0 0-.027.006l-.006.014-.034.614c0 .012.007.02.017.024l.015-.002.201-.093.01-.008.003-.011.018-.43-.003-.012-.01-.01z"/><path fill="#09244B" d="M12 2c5.523 0 10 4.477 10 10a9.959 9.959 0 0 1-2.257 6.329l.964.964a1 1 0 0 1-1.32 1.497l-.094-.083-.965-.963A9.959 9.959 0 0 1 12 22C6.477 22 2 17.523 2 12c0-2.4.846-4.604 2.256-6.328l-.963-.965a1 1 0 0 1 1.32-1.497l.094.083.965.963A9.959 9.959 0 0 1 12 2M5.68 7.095A8 8 0 0 0 16.904 18.32zM12 4c-1.849 0-3.55.627-4.906 1.68l2.33 2.33a2 2 0 0 1 1.691 1.353l.044.152.077.307L13 11.586V9a1 1 0 0 1 .883-.993L14 8h2a3 3 0 0 1 2.995 2.824L19 11v2a3 3 0 0 1-1.649 2.68l-.176.081 1.145 1.145A8 8 0 0 0 12 4m-5.474 6.774L9.752 14H7.78l-.31 1.242a1 1 0 1 1-1.941-.485zm3.85 3.85 1.35 1.35a1 1 0 0 1-1.196-.732zM16 10h-1v3.586l.414.414H16a1 1 0 0 0 1-1v-2a1 1 0 0 0-1-1"/></g></svg>
